packages/sources/icons/src/vitamix/film-line.svg

<svg width="16" height="16" viewBox="0 0 16 16" fill="none" xmlns="http://www.w3.org/2000/svg">
<path fill-rule="evenodd" clip-rule="evenodd" d="M1.99466 2C1.63037 2.00291 1.33587 2.2977 1.33333 2.662V13.338C1.33333 13.7034 1.62931 13.9996 1.99466 14H14.0053C14.3696 13.9971 14.6641 13.7023 14.6667 13.338V2.662C14.6667 2.29667 14.3707 2 14.0053 2H1.99466ZM5.33333 12.6667V3.33333H10.6667V12.6667H5.33333ZM2.66666 3.33333V4.66667H3.99999V3.33333H2.66666ZM12 4.66667V3.33333H13.3333V4.66667H12ZM2.66666 6V7.33333H3.99999V6H2.66666ZM12 7.33333V6H13.3333V7.33333H12ZM2.66666 8.66667V10H3.99999V8.66667H2.66666ZM12 10V8.66667H13.3333V10H12ZM2.66666 11.3333V12.6667H3.99999V11.3333H2.66666ZM12 12.6667V11.3333H13.3333V12.6667H12Z" fill="#001018"/>
</svg>

<svg width="16" height="16" fill="none" xmlns="http://www.w3.org/2000/svg"><path fill-rule="evenodd" clip-rule="evenodd" d="M1.995 2a.667.667 0 0 0-.662.662v10.676c0 .365.296.662.662.662h12.01a.667.667 0 0 0 .662-.662V2.662A.662.662 0 0 0 14.005 2H1.995zm3.338 10.667V3.333h5.334v9.334H5.333zM2.667 3.333v1.334H4V3.333H2.667zM12 4.667V3.333h1.333v1.334H12zM2.667 6v1.333H4V6H2.667zM12 7.333V6h1.333v1.333H12zM2.667 8.667V10H4V8.667H2.667zM12 10V8.667h1.333V10H12zm-9.333 1.333v1.334H4v-1.334H2.667zM12 12.667v-1.334h1.333v1.334H12z" fill="#001018"/></svg>
